X: 37579
T: Smelling Fresh
R: reel
M: 4/4
K: Dmajor
d2 dd AddA|BdeA d2 BA|Beee- eedB|Beef afef|
d2 dd AddA|BdeA d2 BA|Beef a3 f|afef d4:|
fa a/a/a faef|fffa efff|a3 f a3 f|afed B2 dB|
A3 B d3 A|efaf fedA|Beef a3 f|afef d4:|

